X: 10362
T: FAVOURITE JIG
C: By Alex. Deas
R: jig
B: K\"ohler's Violin Repository, v.1, 1885 p.36 #2
F: http://www.archive.org/details/klersviolinrepos01edin
Z: 2011 John Chambers <jc:trillian.mit.edu>
M: 6/8
L: 1/8
K: G
uc |\
BAB GAB | cde (d2c) | Bdg ecA | (G3 F2)D |\
GAB cde | dcB (g2e) | dfg DFA | [G3B,3] [G2B,2] :|
|: ug |\
fef def | gab (e2f) | geb afd | (g3 f2).d |\
[1 eca fdg | (Bg)B A2G | GBg DFA |[G3B,3] [G2B,2] :|
[2 ec'e dbd | cac BgB | Ace DFA | [G3B,3] "^D.C."[G2B,2] |]

%%sep 2 1 500

